ES1T1/14/aimg/maleta.svg

<svg clip-rule="evenodd" fill-rule="evenodd" stroke-linejoin="round" stroke-miterlimit="2" viewBox="0 0 112 94" xmlns="http://www.w3.org/2000/svg" xmlns:xlink="http://www.w3.org/1999/xlink"><image height="13" transform="matrix(.991944 0 0 .939697 44.5482 1.84463)" width="18" xlink:href="data:image/png;base64,iVBORw0KGgoAAAANSUhEUgAAABIAAAANCAYAAACkTj4ZAAAACXBIWXMAAA7EAAAOxAGVKw4bAAAA/UlEQVQokZXS3SoEQBiH8d+uj5xQKyklJ4tIuI9pmoudprkIF4BYcuCEJKE48HWwk5S1a5/DmXee3v87b8cEcqlL2MZDimHwV113gmQRB7jHai51ZWpRLnUB+7hNMVziAtu51Pl/i3KpHezgEeeQYrjBs2HMf3e00e5OUgyfP87P0Mulrk0UteGu4zjF8P7zLsXwiiv0W/TRolzqDHYxaI9GcY0X9Md1tIWnNo+RtKhnWMmlLv8S5VJX0WtFY0kxPLXONnOp3W9Ry7uF0xTD2yRR4wodw3nqtK8+xPO4zR1Fi7aHo24zzuFyGgmkGO5xh/4sFg335WNaUWOA3hfqM1ZrD7T9swAAAABJRU5ErkJggg=="/><path d="m45.336 13.134-.821-.669c.331-.405.963-1.288 1.763-2.405 4.276-5.965 6.675-9.017 7.923-9.138.251-.023.483.052.656.214 1.205 1.135 5.916 8.276 7.513 11.117l-.923.519c-1.593-2.832-6.037-9.519-7.225-10.773-1.179.44-5.298 6.189-7.083 8.678-.811 1.132-1.451 2.026-1.803 2.457" fill="#af96a0" fill-rule="nonzero"/><path d="m55.971 1.786c0 .963-.78 1.744-1.743 1.744s-1.744-.781-1.744-1.744.781-1.743 1.744-1.743 1.743.78 1.743 1.743" fill="#808285" fill-rule="nonzero"/><path d="m55.738.918c.086.206.134.432.134.67 0 .963-.78 1.743-1.743 1.743-.647 0-1.209-.352-1.511-.875.263.63.885 1.074 1.61 1.074.963 0 1.743-.781 1.743-1.744 0-.316-.086-.612-.233-.868" fill="#58595b" fill-rule="nonzero"/><image height="77" transform="matrix(.996109 0 0 1 1.80993 16.266)" width="110" xlink:href="data:image/png;base64,iVBORw0KGgoAAAANSUhEUgAAAG4AAABNCAYAAABHY1FjAAAACXBIWXMAAA7EAAAOxAGVKw4bAAAA0ElEQVR4nO3RwQnAIADAwNrF3FnE+bpDPxK4myCQsfaZDznv7QD+MS7KuCjjooyLMi7KuCjjooyLMi7KuCjjooyLMi7KuCjjooyLMi7KuCjjooyLMi7KuCjjooyLMi7KuCjjooyLMi7KuCjjooyLMi7KuCjjooyLMi7KuCjjooyLMi7KuCjjooyLMi7KuCjjooyLMi7KuCjjooyLMi7KuCjjooyLMi7KuCjjooyLMi7KuCjjooyLMi7KuCjjooyLMi7KuCjjooyLMi7KuCjjoj7qVQL1/zMLNgAAAABJRU5ErkJggg=="/><path d="m9.207 18.031h92.174v65.492h-92.174z" fill="#fff"/><g fill-rule="nonzero"><path d="m99.498 81.849h-90.291v-63.818h90.291zm-99.469 8.753h108.708v-80.906h-108.708z" fill="#ddc6cf"/><path d="m104.389 13.323h-.256l-8.264 8.37h.15v56.837l8.37 8.444z" fill="#e7ced8"/><path d="m12.746 21.693h83.222l8.422-8.37h-100.013l8.369 8.476z" fill="#e7c4d0"/><path d="m12.746 21.799-8.369-8.476v73.569l8.369-8.286z" fill="#ddbbc8"/><path d="m96.019 78.53v.076h-83.273l-8.37 8.286v.083h100.013v-.001z" fill="#f8dee8"/><g fill="#231f20"><path d="m.068 0h.104v-.298c0-.044.009-.082.029-.111.018-.03.054-.054.103-.053.051.001.083.022.103.054.018.03.023.063.022.108v.3h.105v-.3c0-.046.003-.076.025-.11.02-.033.059-.052.105-.052.049 0 .078.017.097.045.024.031.03.076.03.121v.296h.104v-.3c0-.104-.012-.156-.06-.205-.04-.041-.096-.055-.146-.055-.059 0-.109.022-.144.057-.019.019-.03.038-.039.054-.006-.01-.021-.039-.035-.053-.038-.043-.09-.058-.14-.058-.079 0-.142.047-.165.093v-.077h-.098z" transform="matrix(20 0 0 20 18.584 56.123)"/><path d="m.622-.544h-.104v.096c-.025-.052-.094-.112-.202-.112-.158 0-.279.122-.279.288 0 .152.104.288.279.288.086 0 .164-.038.202-.111v.095h.104zm-.481.273c0-.102.074-.192.188-.192.087 0 .148.049.174.112.012.025.017.053.016.081s-.007.056-.019.081c-.027.062-.086.108-.169.108-.132 0-.189-.108-.19-.189z" transform="matrix(20 0 0 20 37.784 56.123)"/></g></g><g fill="#231f20"><path d="m52.964 41.323h2.08v14.8h-2.08z" stroke-width="20"/><path d="m.6-.239c.009-.091-.018-.176-.082-.241-.052-.051-.123-.08-.201-.08-.165 0-.287.133-.287.289 0 .144.11.287.288.287.055 0 .109-.015.155-.046.046-.03.084-.075.11-.135h-.108c-.03.057-.084.092-.157.092-.082 0-.178-.056-.183-.166zm-.463-.081c.005-.074.074-.151.18-.151.103-.002.175.079.18.151z" fill-rule="nonzero" transform="matrix(20 0 0 20 56.404 56.123)"/><path d="m.107 0h.104v-.463h.105v-.081h-.105v-.196h-.104v.196h-.098v.081h.098z" fill-rule="nonzero" transform="matrix(20 0 0 20 69.084 56.123)"/><path d="m.622-.544h-.104v.096c-.025-.052-.094-.112-.202-.112-.158 0-.279.122-.279.288 0 .152.104.288.279.288.086 0 .164-.038.202-.111v.095h.104zm-.481.273c0-.102.074-.192.188-.192.087 0 .148.049.174.112.012.025.017.053.016.081s-.007.056-.019.081c-.027.062-.086.108-.169.108-.132 0-.189-.108-.19-.189z" fill-rule="nonzero" transform="matrix(20 0 0 20 75.064 56.123)"/></g></svg>

<?xml version="1.0" encoding="UTF-8" standalone="no"?>
<!DOCTYPE svg PUBLIC "-//W3C//DTD SVG 1.1//EN" "http://www.w3.org/Graphics/SVG/1.1/DTD/svg11.dtd">
<svg width="100%" height="100%" viewBox="0 0 112 94" version="1.1" xmlns="http://www.w3.org/2000/svg" xmlns:xlink="http://www.w3.org/1999/xlink" xml:space="preserve" xmlns:serif="http://www.serif.com/" style="fill-rule:evenodd;clip-rule:evenodd;stroke-linejoin:round;stroke-miterlimit:2;">
    <g>
        <g id="_Image1_" serif:id="_Image1" transform="matrix(0.991944,0,0,0.939697,44.5482,1.84463)">
            <use id="_Image1_1" serif:id="_Image1" xlink:href="#_Image1" x="0" y="0" width="18px" height="13px"/>
        </g>
        <path d="M45.336,13.134L44.515,12.465C44.846,12.06 45.478,11.177 46.278,10.06C50.554,4.095 52.953,1.043 54.201,0.922C54.452,0.899 54.684,0.974 54.857,1.136C56.062,2.271 60.773,9.412 62.37,12.253L61.447,12.772C59.854,9.94 55.41,3.253 54.222,1.999C53.043,2.439 48.924,8.188 47.139,10.677C46.328,11.809 45.688,12.703 45.336,13.134" style="fill:rgb(175,150,160);fill-rule:nonzero;"/>
        <path d="M55.971,1.786C55.971,2.749 55.191,3.53 54.228,3.53C53.265,3.53 52.484,2.749 52.484,1.786C52.484,0.823 53.265,0.043 54.228,0.043C55.191,0.043 55.971,0.823 55.971,1.786" style="fill:rgb(128,130,133);fill-rule:nonzero;"/>
        <path d="M55.738,0.918C55.824,1.124 55.872,1.35 55.872,1.588C55.872,2.551 55.092,3.331 54.129,3.331C53.482,3.331 52.92,2.979 52.618,2.456C52.881,3.086 53.503,3.53 54.228,3.53C55.191,3.53 55.971,2.749 55.971,1.786C55.971,1.47 55.885,1.174 55.738,0.918" style="fill:rgb(88,89,91);fill-rule:nonzero;"/>
        <g id="_Image2_" serif:id="_Image2" transform="matrix(0.996109,0,0,1,1.80993,16.266)">
            <use id="_Image2_1" serif:id="_Image2" xlink:href="#_Image2" x="0" y="0" width="110px" height="77px"/>
        </g>
        <rect class="fondo" x="9.207" y="18.031" width="92.174" height="65.492" style="fill:white;"/>
        <path d="M99.498,81.849L9.207,81.849L9.207,18.031L99.498,18.031L99.498,81.849ZM0.029,90.602L108.737,90.602L108.737,9.696L0.029,9.696L0.029,90.602Z" style="fill:rgb(221,198,207);fill-rule:nonzero;"/>
        <path d="M104.389,13.323L104.133,13.323L95.869,21.693L96.019,21.693L96.019,78.53L104.389,86.974L104.389,13.323Z" style="fill:rgb(231,206,216);fill-rule:nonzero;"/>
        <path d="M12.746,21.693L95.968,21.693L104.39,13.323L4.377,13.323L12.746,21.799L12.746,21.693Z" style="fill:rgb(231,196,208);fill-rule:nonzero;"/>
        <path d="M12.746,21.799L4.377,13.323L4.377,86.892L12.746,78.606L12.746,21.799Z" style="fill:rgb(221,187,200);fill-rule:nonzero;"/>
        <path d="M96.019,78.53L96.019,78.606L12.746,78.606L4.376,86.892L4.376,86.975L104.389,86.975L104.389,86.974L96.019,78.53Z" style="fill:rgb(248,222,232);fill-rule:nonzero;"/>
        <g>
            <g transform="matrix(1,0,0,1,18.584,56.123)">
                <g transform="matrix(20,0,0,20,0,0)">
                    <path d="M0.068,0L0.172,0L0.172,-0.298C0.172,-0.342 0.181,-0.38 0.201,-0.409C0.219,-0.439 0.255,-0.463 0.304,-0.462C0.355,-0.461 0.387,-0.44 0.407,-0.408C0.425,-0.378 0.43,-0.345 0.429,-0.3L0.429,0L0.534,0L0.534,-0.3C0.534,-0.346 0.537,-0.376 0.559,-0.41C0.579,-0.443 0.618,-0.462 0.664,-0.462C0.713,-0.462 0.742,-0.445 0.761,-0.417C0.785,-0.386 0.791,-0.341 0.791,-0.296L0.791,0L0.895,0L0.895,-0.3C0.895,-0.404 0.883,-0.456 0.835,-0.505C0.795,-0.546 0.739,-0.56 0.689,-0.56C0.63,-0.56 0.58,-0.538 0.545,-0.503C0.526,-0.484 0.515,-0.465 0.506,-0.449C0.5,-0.459 0.485,-0.488 0.471,-0.502C0.433,-0.545 0.381,-0.56 0.331,-0.56C0.252,-0.56 0.189,-0.513 0.166,-0.467L0.166,-0.544L0.068,-0.544L0.068,0Z" style="fill:rgb(35,31,32);fill-rule:nonzero;"/>
                </g>
                <g transform="matrix(20,0,0,20,19.2,0)">
                    <path d="M0.622,-0.544L0.518,-0.544L0.518,-0.448C0.493,-0.5 0.424,-0.56 0.316,-0.56C0.158,-0.56 0.037,-0.438 0.037,-0.272C0.037,-0.12 0.141,0.016 0.316,0.016C0.402,0.016 0.48,-0.022 0.518,-0.095L0.518,0L0.622,0L0.622,-0.544ZM0.141,-0.271C0.141,-0.373 0.215,-0.463 0.329,-0.463C0.416,-0.463 0.477,-0.414 0.503,-0.351C0.515,-0.326 0.52,-0.298 0.519,-0.27C0.518,-0.242 0.512,-0.214 0.5,-0.189C0.473,-0.127 0.414,-0.081 0.331,-0.081C0.199,-0.081 0.142,-0.189 0.141,-0.27L0.141,-0.271Z" style="fill:rgb(35,31,32);fill-rule:nonzero;"/>
                </g>
                <g transform="matrix(20,0,0,20,33.02,0)">
                    <rect x="0.068" y="-0.74" width="0.104" height="0.74" style="fill:rgb(35,31,32);"/>
                </g>
                <g transform="matrix(20,0,0,20,37.82,0)">
                    <path d="M0.6,-0.239C0.609,-0.33 0.582,-0.415 0.518,-0.48C0.466,-0.531 0.395,-0.56 0.317,-0.56C0.152,-0.56 0.03,-0.427 0.03,-0.271C0.03,-0.127 0.14,0.016 0.318,0.016C0.373,0.016 0.427,0.001 0.473,-0.03C0.519,-0.06 0.557,-0.105 0.583,-0.165L0.475,-0.165C0.445,-0.108 0.391,-0.073 0.318,-0.073C0.236,-0.073 0.14,-0.129 0.135,-0.239L0.6,-0.239ZM0.137,-0.32C0.142,-0.394 0.211,-0.471 0.317,-0.471C0.42,-0.473 0.492,-0.392 0.497,-0.32L0.137,-0.32Z" style="fill:rgb(35,31,32);fill-rule:nonzero;"/>
                </g>
                <g transform="matrix(20,0,0,20,50.5,0)">
                    <path d="M0.107,0L0.211,0L0.211,-0.463L0.316,-0.463L0.316,-0.544L0.211,-0.544L0.211,-0.74L0.107,-0.74L0.107,-0.544L0.009,-0.544L0.009,-0.463L0.107,-0.463L0.107,0Z" style="fill:rgb(35,31,32);fill-rule:nonzero;"/>
                </g>
            </g>
            <g transform="matrix(20,0,0,20,75.064,56.123)">
                <path d="M0.622,-0.544L0.518,-0.544L0.518,-0.448C0.493,-0.5 0.424,-0.56 0.316,-0.56C0.158,-0.56 0.037,-0.438 0.037,-0.272C0.037,-0.12 0.141,0.016 0.316,0.016C0.402,0.016 0.48,-0.022 0.518,-0.095L0.518,0L0.622,0L0.622,-0.544ZM0.141,-0.271C0.141,-0.373 0.215,-0.463 0.329,-0.463C0.416,-0.463 0.477,-0.414 0.503,-0.351C0.515,-0.326 0.52,-0.298 0.519,-0.27C0.518,-0.242 0.512,-0.214 0.5,-0.189C0.473,-0.127 0.414,-0.081 0.331,-0.081C0.199,-0.081 0.142,-0.189 0.141,-0.27L0.141,-0.271Z" style="fill:rgb(35,31,32);fill-rule:nonzero;"/>
            </g>
        </g>
    </g>
    <defs>
        <image id="_Image1" width="18px" height="13px" xlink:href="data:image/png;base64,iVBORw0KGgoAAAANSUhEUgAAABIAAAANCAYAAACkTj4ZAAAACXBIWXMAAA7EAAAOxAGVKw4bAAAA/UlEQVQokZXS3SoEQBiH8d+uj5xQKyklJ4tIuI9pmoudprkIF4BYcuCEJKE48HWwk5S1a5/DmXee3v87b8cEcqlL2MZDimHwV113gmQRB7jHai51ZWpRLnUB+7hNMVziAtu51Pl/i3KpHezgEeeQYrjBs2HMf3e00e5OUgyfP87P0Mulrk0UteGu4zjF8P7zLsXwiiv0W/TRolzqDHYxaI9GcY0X9Md1tIWnNo+RtKhnWMmlLv8S5VJX0WtFY0kxPLXONnOp3W9Ry7uF0xTD2yRR4wodw3nqtK8+xPO4zR1Fi7aHo24zzuFyGgmkGO5xh/4sFg335WNaUWOA3hfqM1ZrD7T9swAAAABJRU5ErkJggg=="/>
        <image id="_Image2" width="110px" height="77px" xlink:href="data:image/png;base64,iVBORw0KGgoAAAANSUhEUgAAAG4AAABNCAYAAABHY1FjAAAACXBIWXMAAA7EAAAOxAGVKw4bAAAA0ElEQVR4nO3RwQnAIADAwNrF3FnE+bpDPxK4myCQsfaZDznv7QD+MS7KuCjjooyLMi7KuCjjooyLMi7KuCjjooyLMi7KuCjjooyLMi7KuCjjooyLMi7KuCjjooyLMi7KuCjjooyLMi7KuCjjooyLMi7KuCjjooyLMi7KuCjjooyLMi7KuCjjooyLMi7KuCjjooyLMi7KuCjjooyLMi7KuCjjooyLMi7KuCjjooyLMi7KuCjjooyLMi7KuCjjooyLMi7KuCjjooyLMi7KuCjjoj7qVQL1/zMLNgAAAABJRU5ErkJggg=="/>
    </defs>
</svg>
